; generated by Slic3r 1.3.0 on 2020-03-13 at 21:15:53

; external perimeters extrusion width = 0.55mm (4.37mm^3/s)
; perimeters extrusion width = 0.70mm (11.44mm^3/s)
; infill extrusion width = 0.63mm (13.45mm^3/s)
; solid infill extrusion width = 0.70mm (3.81mm^3/s)
; top infill extrusion width = 0.70mm (2.86mm^3/s)

M107
M104 S200 ; set temperature
G28 ; home all axes
G1 Z5 F5000 ; lift nozzle

; Filament gcode

M109 S200 ; set temperature and wait for it to be reached
G21 ; set units to millimeters
G90 ; use absolute coordinates
M82 ; use absolute distances for extrusion
G92 E0
G1 Z0.350 F7800.000
G1 E-2.00000 F2400.00000
G92 E0
G1 X80.470 Y62.869 F7800.000
G1 E2.00000 F2400.00000
G1 F1800
G1 X81.211 Y61.917 E2.03735
G1 X81.652 Y61.394 E2.05850
G1 X82.875 Y60.100 E2.11361
G1 X84.029 Y59.035 E2.16217
G1 X84.615 Y58.533 E2.18605
G1 X86.421 Y57.197 E2.25557
G1 X87.796 Y56.341 E2.30568
G1 X88.350 Y56.020 E2.32550
G1 X90.465 Y55.002 E2.39813
G1 X91.471 Y54.608 E2.43155
G1 X92.486 Y54.240 E2.46498
G1 X94.863 Y53.605 E2.54109
G1 X96.412 Y53.326 E2.58979
G1 X96.891 Y53.251 E2.60480
G1 X99.456 Y53.064 E2.68436
G1 X101.428 Y53.095 E2.74538
G1 X104.077 Y53.403 E2.82790
G1 X105.778 Y53.753 E2.88164
G1 X108.303 Y54.515 E2.96325
G1 X110.028 Y55.222 E3.02092
G1 X112.177 Y56.313 E3.09551
G1 X112.913 Y56.774 E3.12238
G1 X114.037 Y57.517 E3.16404
G1 X115.686 Y58.772 E3.22818
G1 X115.890 Y58.951 E3.23657
G1 X116.564 Y59.574 E3.26498
G1 X117.541 Y60.531 E3.30728
G1 X118.708 Y61.810 E3.36086
G1 X119.625 Y63.016 E3.40774
G1 X120.412 Y64.157 E3.45061
G1 X121.144 Y65.326 E3.49331
G1 X121.984 Y66.977 E3.55061
G1 X122.545 Y68.261 E3.59397
G1 X122.999 Y69.418 E3.63243
G1 X123.552 Y71.315 E3.69356
G1 X123.861 Y72.696 E3.73735
G1 X124.028 Y73.542 E3.76402
G1 X124.272 Y75.875 E3.83660
G1 X124.322 Y77.765 E3.89510
G1 X124.143 Y80.328 E3.97462
G1 X124.115 Y80.513 E3.98040
G1 X123.855 Y82.103 E4.03025
G1 X123.287 Y84.431 E4.10439
G1 X122.531 Y86.531 E4.17346
G1 X121.731 Y88.336 E4.23455
G1 X121.151 Y89.377 E4.27140
G1 X120.391 Y90.630 E4.31676
G1 X119.518 Y91.919 E4.36491
G1 X118.502 Y93.160 E4.41455
G1 X117.512 Y94.251 E4.46014
G1 X116.594 Y95.182 E4.50058
G1 X115.183 Y96.375 E4.55775
G1 X113.998 Y97.262 E4.60355
G1 X113.270 Y97.776 E4.63113
G1 X111.314 Y98.904 E4.70099
G1 X109.546 Y99.753 E4.76168
G1 X106.994 Y100.667 E4.84556
G1 X105.448 Y101.078 E4.89504
G1 X103.045 Y101.518 E4.97065
G1 X100.863 Y101.681 E5.03833
G1 X98.880 Y101.690 E5.09970
G1 X97.743 Y101.590 E5.13502
G1 X96.247 Y101.405 E5.18167
G1 X94.492 Y101.085 E5.23686
G1 X93.190 Y100.723 E5.27865
G1 X91.752 Y100.255 E5.32545
G1 X90.305 Y99.703 E5.37338
G1 X88.885 Y99.007 E5.42230
G1 X87.558 Y98.272 E5.46924
G1 X86.455 Y97.600 E5.50920
G1 X84.983 Y96.506 E5.56595
G1 X83.817 Y95.528 E5.61304
G1 X83.433 Y95.196 E5.62875
G1 X82.197 Y93.971 E5.68260
G1 X80.821 Y92.336 E5.74871
G1 X80.156 Y91.473 E5.78243
G1 X79.241 Y90.053 E5.83471
G1 X78.414 Y88.599 E5.88645
G1 X77.629 Y86.962 E5.94263
G1 X77.357 Y86.259 E5.96595
G1 X76.890 Y84.964 E6.00855
G1 X76.518 Y83.788 E6.04670
G1 X76.174 Y82.268 E6.09492
G1 X75.936 Y80.902 E6.13783
G1 X75.880 Y80.563 E6.14845
G1 X75.703 Y78.757 E6.20461
G1 X75.690 Y76.577 E6.27207
G1 X75.865 Y74.290 E6.34304
G1 X76.027 Y73.216 E6.37663
G1 X76.435 Y71.318 E6.43670
G1 X76.837 Y69.935 E6.48127
G1 X77.619 Y67.845 E6.55030
G1 X78.180 Y66.621 E6.59198
G1 X79.156 Y64.824 E6.65526
G1 X79.557 Y64.187 E6.67854
G1 X80.426 Y62.930 E6.72581
G1 E4.72581 F2400.00000
G92 E0
G1 X82.705 Y64.476 F7800.000
G1 E2.00000 F2400.00000
G1 F1800
G1 X83.156 Y63.881 E2.02308
G1 X83.993 Y62.888 E2.06330
G1 X84.498 Y62.354 E2.08602
G1 X85.705 Y61.225 E2.13718
G1 X86.759 Y60.321 E2.18013
G1 X87.504 Y59.770 E2.20881
G1 X88.832 Y58.928 E2.25748
G1 X90.147 Y58.162 E2.30457
G1 X91.019 Y57.742 E2.33454
G1 X92.577 Y57.131 E2.38633
G1 X93.882 Y56.666 E2.42919
G1 X94.862 Y56.405 E2.46060
G1 X96.583 Y56.088 E2.51473
G1 X97.841 Y55.889 E2.55416
G1 X98.899 Y55.811 E2.58699
G1 X100.710 Y55.829 E2.64302
G1 X101.895 Y55.863 E2.67971
G1 X102.988 Y55.990 E2.71377
G1 X105.741 Y56.559 E2.80075
G1 X106.783 Y56.873 E2.83443
G1 X109.434 Y57.956 E2.92306
G1 X110.321 Y58.406 E2.95383
G1 X111.295 Y59.005 E2.98924
G1 X112.875 Y60.049 E3.04783
G1 X113.555 Y60.567 E3.07428
G1 X114.502 Y61.407 E3.11346
G1 X115.868 Y62.747 E3.17267
G1 X116.349 Y63.274 E3.19476
G1 X116.900 Y63.950 E3.22174
G1 X117.212 Y64.365 E3.23781
G1 X118.307 Y65.953 E3.29752
G1 X118.609 Y66.435 E3.31512
G1 X119.031 Y67.182 E3.34166
G1 X119.328 Y67.775 E3.36221
G1 X120.106 Y69.555 E3.42232
G1 X120.548 Y70.738 E3.46139
G1 X120.776 Y71.520 E3.48660
G1 X121.204 Y73.428 E3.54711
G1 X121.406 Y74.509 E3.58114
G1 X121.507 Y75.471 E3.61109
G1 X121.576 Y78.330 E3.69957
G1 X121.502 Y79.387 E3.73239
G1 X121.388 Y80.129 E3.75562
G1 X121.058 Y82.146 E3.81885
G1 X120.824 Y83.106 E3.84944
G1 X120.496 Y84.095 E3.88169
G1 X119.807 Y85.959 E3.94318
G1 X119.478 Y86.703 E3.96837
G1 X118.906 Y87.770 E4.00581
G1 X117.871 Y89.476 E4.06758
G1 X117.511 Y90.007 E4.08743
G1 X117.039 Y90.635 E4.11175
G1 X116.662 Y91.091 E4.13005
G1 X115.315 Y92.576 E4.19208
G1 X114.421 Y93.451 E4.23081
G1 X113.839 Y93.942 E4.25438
G1 X112.228 Y95.148 E4.31665
G1 X111.340 Y95.758 E4.34998
G1 X110.534 Y96.223 E4.37880
G1 X107.916 Y97.472 E4.46855
G1 X106.920 Y97.834 E4.50133
G1 X106.250 Y98.016 E4.52283
G1 X104.255 Y98.546 E4.58672
G1 X103.263 Y98.728 E4.61792
G1 X102.288 Y98.825 E4.64826
G1 X100.268 Y98.962 E4.71090
G1 X99.450 Y98.966 E4.73621
G1 X98.287 Y98.884 E4.77229
G1 X96.250 Y98.631 E4.83582
G1 X95.585 Y98.513 E4.85672
G1 X94.844 Y98.341 E4.88027
G1 X94.308 Y98.192 E4.89750
G1 X92.328 Y97.547 E4.96191
G1 X91.785 Y97.342 E4.97989
G1 X91.090 Y97.045 E5.00328
G1 X90.505 Y96.758 E5.02344
G1 X88.685 Y95.749 E5.08785
G1 X87.649 Y95.090 E5.12584
G1 X87.042 Y94.639 E5.14925
G1 X85.519 Y93.363 E5.21073
G1 X84.990 Y92.897 E5.23256
G1 X84.480 Y92.392 E5.25476
G1 X83.908 Y91.750 E5.28139
G1 X82.799 Y90.409 E5.33522
G1 X82.152 Y89.532 E5.36893
G1 X81.796 Y88.976 E5.38940
G1 X80.642 Y86.939 E5.46181
G1 X80.319 Y86.265 E5.48498
G1 X79.994 Y85.455 E5.51198
G1 X79.400 Y83.808 E5.56616
G1 X79.083 Y82.738 E5.60069
G1 X78.941 Y82.111 E5.62057
G1 X78.621 Y80.272 E5.67835
G1 X78.541 Y79.766 E5.69422
G1 X78.468 Y79.021 E5.71738
G1 X78.441 Y78.348 E5.73822
G1 X78.444 Y76.128 E5.80690
G1 X78.516 Y75.173 E5.83656
G1 X78.808 Y73.232 E5.89728
G1 X78.976 Y72.449 E5.92209
G1 X79.608 Y70.271 E5.99225
G1 X79.930 Y69.410 E6.02073
G1 X80.857 Y67.390 E6.08948
G1 X81.259 Y66.649 E6.11558
G1 X81.989 Y65.492 E6.15791
G1 X82.662 Y64.536 E6.19407
G1 X83.213 Y64.840 F7800.000
G1 F1800
G1 X83.642 Y64.275 E6.21604
G1 X84.460 Y63.304 E6.25533
G1 X84.940 Y62.796 E6.27694
G1 X86.118 Y61.694 E6.32687
G1 X87.148 Y60.810 E6.36889
G1 X87.857 Y60.286 E6.39618
G1 X89.161 Y59.459 E6.44396
G1 X90.439 Y58.715 E6.48972
G1 X91.269 Y58.315 E6.51823
G1 X92.800 Y57.715 E6.56913
G1 X94.067 Y57.264 E6.61074
G1 X95.000 Y57.015 E6.64062
G1 X96.692 Y56.703 E6.69386
G1 X97.912 Y56.510 E6.73210
G1 X98.919 Y56.437 E6.76334
G1 X100.700 Y56.454 E6.81847
G1 X101.849 Y56.487 E6.85403
G1 X102.889 Y56.608 E6.88644
G1 X105.585 Y57.165 E6.97163
G1 X106.577 Y57.464 E7.00368
G1 X109.173 Y58.524 E7.09045
G1 X110.016 Y58.952 E7.11973
G1 X110.764 Y59.408 E7.14682
G1 X112.513 Y60.559 E7.21162
G1 X113.160 Y61.051 E7.23679
G1 X114.071 Y61.859 E7.27447
G1 X115.418 Y63.181 E7.33286
G1 X115.876 Y63.682 E7.35388
G1 X116.408 Y64.335 E7.37994
G1 X116.704 Y64.730 E7.39522
G1 X117.784 Y66.297 E7.45411
G1 X118.072 Y66.755 E7.47086
G1 X118.479 Y67.475 E7.49647
G1 X118.762 Y68.041 E7.51602
G1 X119.529 Y69.796 E7.57532
G1 X119.954 Y70.932 E7.61284
G1 X120.171 Y71.676 E7.63683
G1 X120.593 Y73.558 E7.69652
G1 X120.787 Y74.597 E7.72923
G1 X120.882 Y75.513 E7.75772
G1 X120.951 Y78.312 E7.84437
G1 X120.880 Y79.318 E7.87559
G1 X120.771 Y80.033 E7.89797
G1 X120.445 Y82.021 E7.96031
G1 X120.223 Y82.935 E7.98941
G1 X119.908 Y83.884 E8.02037
G1 X119.228 Y85.724 E8.08106
G1 X118.914 Y86.432 E8.10503
G1 X118.367 Y87.454 E8.14092
G1 X117.345 Y89.139 E8.20189
G1 X117.003 Y89.644 E8.22077
G1 X116.548 Y90.248 E8.24417
G1 X116.190 Y90.682 E8.26158
G1 X114.860 Y92.147 E8.32282
G1 X114.003 Y92.985 E8.35991
G1 X113.450 Y93.453 E8.38234
G1 X111.859 Y94.643 E8.44380
G1 X111.008 Y95.228 E8.47576
G1 X110.241 Y95.671 E8.50318
G1 X107.679 Y96.893 E8.59104
G1 X106.731 Y97.237 E8.62223
G1 X106.087 Y97.413 E8.64290
G1 X104.118 Y97.936 E8.70594
G1 X103.175 Y98.109 E8.73562
G1 X102.240 Y98.201 E8.76470
G1 X100.245 Y98.337 E8.82656
G1 X99.467 Y98.341 E8.85064
G1 X98.354 Y98.263 E8.88517
G1 X96.343 Y98.013 E8.94787
G1 X95.711 Y97.901 E8.96777
G1 X94.998 Y97.735 E8.99039
G1 X94.488 Y97.593 E9.00678
G1 X92.535 Y96.957 E9.07034
G1 X92.018 Y96.763 E9.08744
G1 X91.351 Y96.476 E9.10991
G1 X90.794 Y96.204 E9.12909
G1 X88.998 Y95.208 E9.19265
G1 X88.007 Y94.578 E9.22900
G1 X87.429 Y94.149 E9.25127
G1 X85.924 Y92.887 E9.31205
G1 X85.417 Y92.441 E9.33295
G1 X84.932 Y91.960 E9.35407
G1 X84.385 Y91.346 E9.37953
G1 X83.288 Y90.019 E9.43282
G1 X82.670 Y89.182 E9.46502
G1 X82.330 Y88.652 E9.48449
G1 X81.198 Y86.653 E9.55559
G1 X80.890 Y86.011 E9.57763
G1 X80.579 Y85.237 E9.60345
G1 X79.992 Y83.607 E9.65706
G1 X79.689 Y82.585 E9.69005
G1 X79.554 Y81.989 E9.70896
G1 X79.238 Y80.172 E9.76602
G1 X79.162 Y79.686 E9.78124
G1 X79.092 Y78.978 E9.80328
G1 X79.066 Y78.333 E9.82324
G1 X79.069 Y76.152 E9.89073
G1 X79.137 Y75.243 E9.91895
G1 X79.423 Y73.345 E9.97836
G1 X79.583 Y72.599 E10.00196
G1 X80.201 Y70.469 E10.07059
G1 X80.508 Y69.649 E10.09768
G1 X81.416 Y67.670 E10.16506
G1 X81.799 Y66.965 E10.18989
G1 X82.513 Y65.834 E10.23130
G1 X83.169 Y64.901 E10.26659
G1 X83.720 Y65.205 F7800.000
G1 F1800
G1 X84.127 Y64.668 E10.28743
G1 X84.926 Y63.720 E10.32579
G1 X85.382 Y63.239 E10.34631
G1 X86.530 Y62.164 E10.39499
G1 X87.538 Y61.299 E10.43609
G1 X88.211 Y60.801 E10.46198
G1 X89.490 Y59.990 E10.50886
G1 X90.731 Y59.268 E10.55330
G1 X91.519 Y58.888 E10.58036
G1 X93.023 Y58.299 E10.63037
G1 X94.252 Y57.861 E10.67072
G1 X95.137 Y57.625 E10.69908
G1 X96.801 Y57.319 E10.75142
G1 X97.983 Y57.132 E10.78848
G1 X98.939 Y57.062 E10.81813
G1 X100.691 Y57.079 E10.87236
G1 X101.804 Y57.111 E10.90680
G1 X102.791 Y57.226 E10.93755
G1 X105.430 Y57.771 E11.02095
G1 X106.371 Y58.055 E11.05136
G1 X108.911 Y59.092 E11.13628
G1 X109.712 Y59.499 E11.16407
G1 X110.434 Y59.938 E11.19023
G1 X112.151 Y61.069 E11.25385
G1 X112.765 Y61.536 E11.27773
G1 X113.640 Y62.312 E11.31392
G1 X114.968 Y63.615 E11.37149
G1 X115.402 Y64.091 E11.39143
G1 X116.197 Y65.095 E11.43106
G1 X117.262 Y66.640 E11.48914
G1 X117.534 Y67.075 E11.50503
G1 X117.928 Y67.769 E11.52972
G1 X118.196 Y68.306 E11.54827
G1 X118.953 Y70.037 E11.60676
G1 X119.359 Y71.126 E11.64272
G1 X119.565 Y71.832 E11.66548
G1 X119.982 Y73.689 E11.72436
G1 X120.168 Y74.686 E11.75575
G1 X120.258 Y75.555 E11.78279
G1 X120.325 Y78.294 E11.86759
G1 X120.259 Y79.249 E11.89722
G1 X120.153 Y79.937 E11.91875
G1 X119.833 Y81.896 E11.98020
G1 X119.621 Y82.763 E12.00782
G1 X119.319 Y83.673 E12.03748
G1 X118.649 Y85.489 E12.09738
G1 X118.351 Y86.161 E12.12013
G1 X117.827 Y87.139 E12.15446
G1 X116.819 Y88.801 E12.21463
G1 X116.494 Y89.281 E12.23255
G1 X116.057 Y89.861 E12.25502
G1 X115.717 Y90.272 E12.27154
G1 X114.405 Y91.719 E12.33198
G1 X113.586 Y92.520 E12.36744
G1 X113.060 Y92.964 E12.38873
G1 X111.491 Y94.138 E12.44939
G1 X110.676 Y94.698 E12.47997
G1 X109.948 Y95.118 E12.50599
G1 X107.441 Y96.315 E12.59196
G1 X106.542 Y96.641 E12.62155
G1 X105.924 Y96.810 E12.64140
G1 X103.981 Y97.325 E12.70358
G1 X103.086 Y97.489 E12.73175
G1 X102.192 Y97.578 E12.75957
G1 X100.223 Y97.713 E12.82064
G1 X99.484 Y97.716 E12.84349
G1 X98.421 Y97.641 E12.87647
G1 X96.437 Y97.395 E12.93836
G1 X95.836 Y97.288 E12.95724
G1 X95.153 Y97.129 E12.97894
G1 X94.669 Y96.995 E12.99449
G1 X92.742 Y96.367 E13.05719
G1 X92.251 Y96.183 E13.07343
G1 X91.612 Y95.908 E13.09496
G1 X91.084 Y95.649 E13.11317
G1 X89.311 Y94.667 E13.17588
G1 X88.365 Y94.065 E13.21059
G1 X87.817 Y93.658 E13.23172
G1 X86.329 Y92.410 E13.29181
G1 X85.845 Y91.984 E13.31177
G1 X85.384 Y91.528 E13.33182
G1 X84.862 Y90.942 E13.35610
G1 X83.776 Y89.629 E13.40885
G1 X83.187 Y88.831 E13.43954
G1 X82.865 Y88.328 E13.45802
G1 X81.754 Y86.367 E13.52779
G1 X81.462 Y85.757 E13.54870
G1 X81.165 Y85.018 E13.57334
G1 X80.584 Y83.406 E13.62640
G1 X80.295 Y82.432 E13.65783
G1 X80.167 Y81.866 E13.67578
G1 X79.855 Y80.072 E13.73212
G1 X79.782 Y79.607 E13.74670
G1 X79.716 Y78.935 E13.76761
G1 X79.691 Y78.319 E13.78669
G1 X79.694 Y76.176 E13.85299
G1 X79.759 Y75.313 E13.87977
G1 X80.038 Y73.457 E13.93786
G1 X80.190 Y72.749 E13.96026
G1 X80.794 Y70.667 E14.02735
G1 X81.085 Y69.889 E14.05306
G1 X81.975 Y67.951 E14.11907
G1 X82.338 Y67.281 E14.14263
G1 X83.036 Y66.175 E14.18311
G1 X83.677 Y65.266 E14.21753
G1 X84.228 Y65.570 F7800.000
G1 F1800
G1 X84.613 Y65.062 E14.23725
G1 X85.393 Y64.137 E14.27469
G1 X85.824 Y63.681 E14.29410
G1 X86.943 Y62.633 E14.34154
G1 X87.928 Y61.788 E14.38171
G1 X88.565 Y61.317 E14.40622
G1 X89.820 Y60.522 E14.45220
G1 X91.024 Y59.821 E14.49532
G1 X91.769 Y59.462 E14.52092
G1 X93.247 Y58.883 E14.57003
G1 X94.437 Y58.459 E14.60913
G1 X95.275 Y58.235 E14.63596
G1 X96.910 Y57.934 E14.68742
G1 X98.055 Y57.753 E14.72329
G1 X98.959 Y57.687 E14.75134
G1 X100.682 Y57.704 E14.80468
G1 X101.758 Y57.735 E14.83799
G1 X102.692 Y57.843 E14.86709
G1 X105.275 Y58.377 E14.94870
G1 X106.165 Y58.645 E14.97748
G1 X108.650 Y59.660 E15.06054
G1 X109.407 Y60.045 E15.08683
G1 X110.104 Y60.469 E15.11207
G1 X111.789 Y61.579 E15.17451
G1 X112.370 Y62.021 E15.19710
G1 X113.209 Y62.765 E15.23180
G1 X114.518 Y64.049 E15.28855
G1 X114.929 Y64.499 E15.30742
G1 X115.689 Y65.460 E15.34534
G1 X116.740 Y66.983 E15.40260
G1 X116.997 Y67.395 E15.41764
G1 X117.376 Y68.063 E15.44140
G1 X117.629 Y68.571 E15.45895
G1 X118.376 Y70.278 E15.51663
G1 X118.765 Y71.320 E15.55104
G1 X118.960 Y71.988 E15.57257
G1 X119.370 Y73.819 E15.63064
G1 X119.548 Y74.774 E15.66071
G1 X119.634 Y75.596 E15.68629
G1 X119.700 Y78.276 E15.76925
G1 X119.637 Y79.180 E15.79728
G1 X119.536 Y79.841 E15.81797
G1 X119.220 Y81.772 E15.87852
G1 X119.020 Y82.592 E15.90466
G1 X118.731 Y83.462 E15.93302
G1 X118.069 Y85.254 E15.99213
G1 X117.787 Y85.889 E16.01365
G1 X117.288 Y86.823 E16.04643
G1 X116.292 Y88.464 E16.10581
G1 X115.985 Y88.917 E16.12276
G1 X115.567 Y89.474 E16.14431
G1 X115.245 Y89.863 E16.15994
G1 X113.950 Y91.290 E16.21958
G1 X113.168 Y92.054 E16.25341
G1 X112.671 Y92.474 E16.27355
G1 X111.122 Y93.633 E16.33341
G1 X110.344 Y94.168 E16.36261
G1 X109.655 Y94.565 E16.38723
G1 X107.204 Y95.736 E16.47131
G1 X106.353 Y96.045 E16.49932
G1 X105.760 Y96.206 E16.51833
G1 X103.845 Y96.715 E16.57967
G1 X102.998 Y96.870 E16.60632
G1 X102.144 Y96.955 E16.63287
G1 X100.200 Y97.088 E16.69317
G1 X99.501 Y97.091 E16.71479
G1 X98.488 Y97.020 E16.74622
G1 X96.530 Y96.777 E16.80729
G1 X95.962 Y96.676 E16.82515
G1 X95.308 Y96.524 E16.84592
G1 X94.850 Y96.396 E16.86064
G1 X92.949 Y95.777 E16.92249
G1 X92.485 Y95.603 E16.93785
G1 X91.873 Y95.340 E16.95846
G1 X91.373 Y95.095 E16.97569
G1 X89.624 Y94.126 E17.03755
G1 X88.723 Y93.553 E17.07062
G1 X88.204 Y93.167 E17.09061
G1 X86.734 Y91.934 E17.15000
G1 X86.272 Y91.528 E17.16903
G1 X85.836 Y91.097 E17.18800
G1 X85.340 Y90.539 E17.21112
G1 X84.265 Y89.239 E17.26331
G1 X83.705 Y88.480 E17.29249
G1 X83.400 Y88.004 E17.30998
G1 X82.310 Y86.080 E17.37843
G1 X82.033 Y85.503 E17.39822
G1 X81.751 Y84.800 E17.42168
G1 X81.175 Y83.204 E17.47417
G1 X80.901 Y82.278 E17.50405
G1 X80.780 Y81.743 E17.52104
G1 X80.472 Y79.973 E17.57665
G1 X80.402 Y79.528 E17.59059
G1 X80.340 Y78.891 E17.61038
G1 X80.316 Y78.304 E17.62857
G1 X80.319 Y76.200 E17.69369
G1 X80.380 Y75.383 E17.71903
G1 X80.654 Y73.569 E17.77580
G1 X80.797 Y72.900 E17.79700
G1 X81.388 Y70.865 E17.86255
G1 X81.663 Y70.129 E17.88688
G1 X82.534 Y68.231 E17.95151
G1 X82.878 Y67.598 E17.97381
G1 X83.560 Y66.517 E18.01337
G1 X84.184 Y65.630 E18.04691
G1 X84.736 Y65.934 F7800.000
G1 F1800
G1 X85.099 Y65.455 E18.06551
G1 X85.859 Y64.553 E18.10202
